packages/ffe-icons/icons/filled/sm/https.svg

<svg xmlns="http://www.w3.org/2000/svg" height="20" viewBox="0 -960 960 960" width="20"><path d="M276.025-116.001q-26.543 0-45.283-18.891-18.741-18.89-18.741-45.417v-359.382q0-26.527 18.891-45.417 18.89-18.891 45.417-18.891h31.692v-96q0-71.602 50.265-121.8 50.264-50.198 121.96-50.198t121.735 50.198q50.038 50.198 50.038 121.8v96h31.692q26.527 0 45.417 18.891 18.891 18.89 18.891 45.417v359.382q0 26.527-18.903 45.417-18.902 18.891-45.445 18.891H276.025Zm204.187-182q25.942 0 43.864-18.135 17.923-18.135 17.923-44.076 0-25.942-18.135-43.864-18.135-17.923-44.076-17.923-25.942 0-43.864 18.135-17.923 18.135-17.923 44.076 0 25.942 18.135 43.864 18.135 17.923 44.076 17.923ZM360-603.999h240v-96q0-50-35-85t-85-35q-50 0-85 35t-35 85v96Z"/></svg>

<svg xmlns="http://www.w3.org/2000/svg" height="20" viewBox="0 -960 960 960" width="20"><path d="M276.03-116q-26.55 0-45.29-18.89T212-180.31v-359.38q0-26.53 18.89-45.42T276.31-604H308v-96q0-71.6 50.27-121.8Q408.53-872 480.23-872q71.69 0 121.73 50.2Q652-771.6 652-700v96h31.69q26.53 0 45.42 18.89T748-539.69v359.38q0 26.53-18.9 45.42Q710.19-116 683.65-116H276.03Zm204.18-182q25.94 0 43.87-18.14Q542-334.27 542-360.21t-18.14-43.87Q505.73-422 479.79-422t-43.87 18.14Q418-385.73 418-359.79t18.14 43.87Q454.27-298 480.21-298ZM360-604h240v-96q0-50-35-85t-85-35q-50 0-85 35t-35 85v96Z"/></svg>
